MB--Bare--White.svg

<svg height="360" viewBox="0 0 360 360" width="360" xmlns="http://www.w3.org/2000/svg"><path d="m430 150h-360v-44c0-19.882251 16.117749-36 36-36h288c19.882251 0 36 16.117749 36 36zm0 30v100h-60-230.995189-21.912465c13.660721 60.676586 67.877536 106 132.680202 106 53.574931 0 99.914449-30.97848 122.083115-76h58.144337v84c0 19.882251-16.117749 36-36 36h-288c-19.882251 0-36-16.117749-36-36v-214zm-267.782539 130 175.110171.000005c-19.09162 27.913564-51.184149 46.231598-87.555084 46.231598s-68.463464-18.318034-87.555084-46.231598zm-44.65035-58h30.686887c3.374227-10.445056 13.177839-18 24.746002-18s21.371775 7.554944 24.746002 18h30.686887c-3.881837-27.138353-27.221114-48-55.432889-48s-51.551052 20.861647-55.432889 48zm154 0h30.686887c3.374227-10.445056 13.177839-18 24.746002-18s21.371775 7.554944 24.746002 18h30.686887c-3.881837-27.138353-27.221114-48-55.432889-48s-51.551052 20.861647-55.432889 48z" fill="#fff" fill-rule="evenodd" transform="translate(-70 -70)"/></svg>

<?xml version="1.0" encoding="UTF-8"?>
<svg width="360px" height="360px" viewBox="0 0 360 360" version="1.1" xmlns="http://www.w3.org/2000/svg" xmlns:xlink="http://www.w3.org/1999/xlink">
    <!-- Generator: Sketch 56.3 (81716) - https://sketch.com -->
    <title>MB--Bare--White</title>
    <desc>Created with Sketch.</desc>
    <defs>
        <path d="M430,150 L70,150 L70,106 C70,86.117749 86.117749,70 106,70 L394,70 C413.882251,70 430,86.117749 430,106 L430,150 Z M430,180 L430,280 L370,280 L139.004811,280 L117.092346,280 C130.753067,340.676586 184.969882,386 249.772548,386 C303.347479,386 349.686997,355.02152 371.855663,310 L430,310 L430,394 C430,413.882251 413.882251,430 394,430 L106,430 C86.117749,430 70,413.882251 70,394 L70,180 L430,180 Z M162.217461,310 L337.327632,310.000005 C318.236012,337.913569 286.143483,356.231603 249.772548,356.231603 C213.401613,356.231603 181.309084,337.913569 162.217464,310.000005 Z M117.567111,252 L148.253998,252 C151.628225,241.554944 161.431837,234 173,234 C184.568163,234 194.371775,241.554944 197.746002,252 L228.432889,252 C224.551052,224.861647 201.211775,204 173,204 C144.788225,204 121.448948,224.861647 117.567111,252 Z M271.567111,252 L302.253998,252 C305.628225,241.554944 315.431837,234 327,234 C338.568163,234 348.371775,241.554944 351.746002,252 L382.432889,252 C378.551052,224.861647 355.211775,204 327,204 C298.788225,204 275.448948,224.861647 271.567111,252 Z" id="path-1"></path>
    </defs>
    <g id="Branding" stroke="none" stroke-width="1" fill="none" fill-rule="evenodd">
        <g id="MB--SquareCanvas--WhiteOverBlue" transform="translate(-70.000000, -70.000000)">
            <mask id="mask-2" fill="white">
                <use xlink:href="#path-1"></use>
            </mask>
            <use id="MB--Bare--White" fill="#FFFFFF" xlink:href="#path-1"></use>
        </g>
    </g>
</svg>
